X:1
T:Title
%%score { ( 1 3 4 ) | ( 2 5 ) }
L:1/8
Q:1/4=90
M:6/8
K:Ab
V:1 treble nm="Grand Piano"
V:3 treble 
V:4 treble 
V:2 bass 
V:5 bass 
V:1
 [Ec]>[Ec][Ec] [Fd][Ec][DB] | [A,FA][A,EG][A,DF] [A,CE] [CEA]2 | G>GG GGA | Bcd [Ec]3 | %4
w: J.~M.~Dungan * * * * *||||
 [Ec]>[Ec][Ec] [Ee][Ec][CEA] | [A,EA][EB][Ec] [Fe] [Fd]2 | [FA]>[EG][DF] [CE][EA][FB] | %7
w: |||
 c<cB [CA]3 | [Fd]>[Fd][Fd] [Fd]<.[Fd][Fd] | [Ec]>[Ec][Ec] [Ec]<.[Ec] z | %10
w: |||
 .[EB]>.[EB].[EB] .[EB].[EB].[EB] |[M:15/16] [DB][EB]/-[EB]/[FB][EB]3/2- [EB]3 | %12
w: ||
[M:3/4] [CE]>[DF] [CE][CE] [CEA][DEB] | [Ec]>[Fd] [Ec]B F2 | F>[EG] [DF][CE]/[EA]/- [EA][FB] | %15
w: |||
[M:27/32] z/ c/4-c/4-c/4-c/4-c/4-c/4-c/-<c/ z/4 z/4 z/4 z/4 z/4 z/4 z/4 z/4 z/4 z/4 z/4 z/4 z/4 z/ |] %16
w: |
V:2
 [A,,A,]>[A,,A,][A,,A,] [A,,A,][A,,A,][A,,A,] | D,D,D, A,, A,,2 | %2
 [E,B,E]>[E,B,E][E,B,E] [E,B,E][E,B,E][E,CE] | [E,G,E][E,A,E][E,B,E] [A,,A,]3 | %4
 [A,,A,]>[A,,A,][A,,A,] [A,,C][A,,A,]A,, | C,[B,,G,][A,,A,] [D,A,] [D,A,]2 | %6
 [D,D]>[D,A,][D,A,] [A,,A,][C,A,][D,A,] | [E,A,E]<[E,A,E][E,G,D] [A,,A,]3 | %8
 [D,A,]>[D,A,][D,A,] [D,A,]<.[D,A,][D,A,] | [A,,A,]>[A,,A,][A,,A,] [A,,A,]<.[A,,A,] z | %10
 .[B,,G,]>.[B,,G,].[B,,G,] .[B,,G,].[B,,G,].[B,,G,] | %11
[M:15/16] [B,,F,][B,,G,]/-[B,,G,]/[B,,A,][E,G,]3/2- [E,G,]3 | %12
[M:3/4] [A,,A,]>[A,,A,] [A,,A,][A,,A,] A,,A,, | [A,,A,]>[A,,A,] [A,,A,][D,A,D] [D,A,D]2 | %14
 [D,A,D]>[D,A,] [D,A,][A,,A,]/[C,A,]/- [C,A,][D,A,] | %15
[M:27/32] [E,A,E]/[A,E]/4-[A,E]/4-[A,E]/4-[A,E]/4-[A,E]/4-[A,E]/4-[A,E]/-<[A,E]/ z/ [A,,A,]/4-[A,,A,]/4-[A,,A,]/4-[A,,A,]/4-[A,,A,]/4-[A,,A,]/4-[A,,A,]/4-[A,,A,]/4-[A,,A,]/4-[A,,A,]/-<[A,,A,]/ |] %16
V:3
 x6 | x6 | x6 | x6 | x6 | x6 | x6 | x6 | x6 | x6 | x6 |[M:15/16] x15/2 |[M:3/4] x6 | x6 | x6 | %15
[M:27/32] z/4 z/4 z/4 z/4 z/4 z/4 z/4 z/4 z/ B/4-B/4-B/-<B/ z/4 z/4 z/4 z/4 z/4 z/4 z/4 z/4 z/4 z/ |] %16
V:4
 x6 | x6 | x6 | x6 | x6 | x6 | x6 | x6 | x6 | x6 | x6 |[M:15/16] x15/2 |[M:3/4] x6 | x6 | x6 | %15
[M:27/32] c/ z/4 z/4 z/4 z/4 z/4 z/4 z/4 z/4 z/4 z/4 z/ [CA]/4-[CA]/4-[CA]/4-[CA]/4-[CA]/4-[CA]/4-[CA]/4-[CA]/4-[CA]/4-[CA]/-<[CA]/ |] %16
V:5
 x6 | x6 | x6 | x6 | x6 | x6 | x6 | x6 | x6 | x6 | x6 |[M:15/16] x15/2 |[M:3/4] x6 | x6 | x6 | %15
[M:27/32] z/ E,/4-E,/4-E,/4-E,/4-E,/-<E,/[E,G,D]/4-[E,G,D]/4-[E,G,D]/-<[E,G,D]/ z/4 z/4 z/4 z/4 z/4 z/4 z/4 z/4 z/4 z/ |] %16

